!!!COM: Anon.
!!!OTL: Alma Redemptoris Mater
!!!SCA: Folio 329-330
!!!YOR: from 'Thirty-Five Conductus for Two and Three Voices', pp.101-104
!!!YOR: edited by Janet Knapp, Collegium Musicum No. 6, Yale University (1965)
!!!YOR: from the School of Notre Dame; circa 1170-1240
!!!YOO: Yale University
!!!YOY: 1965
**kern	**kern
=1	=1
4.G	4.d
4.r	4e
.	8f
=2	=2
4.G	4.g
4.B-	4.f
=3	=3
4.d	4.d
4.r	4d
.	8e
=4	=4
4.e	4.c
4f	4.r
8e	.
=5	=5
4.d	4.d
4.r	4e
.	8f
=6	=6
4.c	4.g
4.r	4.r
=7	=7
4.B-	4.f
4.r	4.d
=8	=8
4A	4e
8A	8d
4B-	4d
8A	8c
=9	=9
4.G	4.d
4.r	4.r
=10	=10
4.c	4.c
4.B	4.d
=11	=11
4.A	4.e
4.r	4.r
=12	=12
4.c	4.g
4.d	4.f
=13	=13
4.e	4.e
4.r	4.d
=14	=14
4g	4.c
8f	.
4f	4.r
8e	.
=15	=15
4.d	4d
.	8c
4.r	4B
.	8A
=16	=16
4.c	4.c
4.r	4.d
=17	=17
4.A	4.e
4.r	4.r
=18	=18
4.B-	4f
.	8d
4.A	8e
.	8d
.	8c
=19	=19
4.G	4.d
4G	4.e
8A	.
=20	=20
4.F	4.f
4.G	4.r
=21	=21
4.A	4e
.	8d
4.r	4.c
=22	=22
4B	4B
8c	8A
4d	4G
8e	8F
=23	=23
4d	4G
8c	8A
4B	4B
8A	8c
=24	=24
4.G	4.d
4.r	4.e
=25	=25
2.F	4.f
.	4f
.	8d
=26	=26
4.G	4.d
4.r	4.r
=27	=27
4.A	4.e
4A	4e
8G	8d
=28	=28
4.F	4.f
4.r	4.r
=29	=29
4.G	4.g
4.B-	4.f
=30	=30
4.d	4e
.	8d
8d	16d
.	16c
8d	8B-
8e	8A
=31	=31
16f	8B-
16e	.
16d	8A
16c	.
8B-	8G
4.A	4.c
=32	=32
4.G	4.d
4.r	4.r
=33	=33
4.B-	4.f
4.c	4e
.	8f
=34	=34
4.d	8d
.	8c
.	8B-
4.r	4.A
=35	=35
4.f	4.B-
4.e	4.c
=36	=36
4.d	4.d
4e	4.r
8d	.
=37	=37
4c	4.c
8B-	.
4.c	4d
.	8e
=38	=38
4.A	4.e
4.r	4.r
=39	=39
4.B-	4.f
4.c	4e
.	8f
=40	=40
4.d	8d
.	8c
.	8B-
4.r	4.A
=41	=41
4.f	4.B-
4.e	4.c
=42	=42
4.d	4.d
4e	4.r
8d	.
=43	=43
4c	4c
8B-	8B-
4.A	4.c
=44	=44
4.A	4.d
4.G	4d
.	8e
=45	=45
4.F	4.f
4.G	4.g
=46	=46
4.A	8e
.	8e
.	8d
4.r	4e
.	8f
=47	=47
16c	16g
16B-	16f
8A	16e
.	16d
8G	16c
.	16B-
4.c	4.A
=48	=48
4.d	4.G
4.r	4.r
=49	=49
4.f	4.F
4e	4.r
8d	.
=50	=50
4.d	4.G
4.r	4A
.	8B
=51	=51
4.c	4.c
4B	4.r
8A	.
=52	=52
4.A	4e
.	8d
4.r	8c
.	8B
.	8A
=53	=53
4.e	4.A
4d	4.r
8B	.
=54	=54
8B	4.B
8B	.
8A	.
4G	4.c
8A	.
=55	=55
4B	4.d
8A	.
4.G	4.c
=56	=56
2.G	4.d
.	4d
.	8e
=57	=57
4.F	4.f
4.r	4.r
=58	=58
4.G	8g
.	8f
.	8e
4A	4.d
8B	.
=59	=59
4.c	4.c
4.r	4.r
=60	=60
4.d	4.d
4.r	4e
.	8f
=61	=61
4.G	8g
.	8f
.	8e
4.r	4.d
=62	=62
4d	4.d
8e	.
4f	4.c
8e	.
=63	=63
4.d	4.d
4.r	4d
.	8e
=64	=64
4.c	4.g
4f	8f
.	8e
8f	8d
=65	=65
4.g	4.c
4.G	8d
.	8c
.	8B
=66	=66
4.A	4.A
4.F	4B-
.	8A
=67	=67
4.G	4.G
4.r	4.r
=68	=68
4.c	4.e
4B-	4f
8A	8e
=69	=69
4.B-	4.d
4A	4e
8G	8d
=70	=70
4.F	4.c
4.G	4.B-
=71	=71
4.A	4.A
4.r	4.r
=72	=72
4.B	4.B
4c	4A
8d	8G
=73	=73
4.d	4.d
4.r	4.r
=74	=74
4.e	4.A
4e	4A
8d	8B
=75	=75
4c	4c
8B	8B
4.A	4.c
=76	=76
4.G	4.d
4.r	4d
.	8e
=77	=77
2.F	2.f
=78	=78
4.G	{24g
.	24f
.	24e
.	16d
.	16c
.	16B
.	16A}
4G	4.G
8F	.
=79	=79
8E	8G
4D	4A
4.r	4.r
=80	=80
4.G	4.d
4.r	4e
.	8f
=81	=81
4.A	4.e
4.r	4d
.	8c
=82	=82
4.B	4.B
4c	4.A
8d	.
=83	=83
4.d	4.G
4d	4.r
8e	.
=84	=84
4.f	4.B-
4.e	4.c
=85	=85
4.d	4.d
4.r	4.r
=86	=86
4.c	4.c
4.B-	4.d
=87	=87
4.A	4.e
4A	4.r
8G	.
=88	=88
4.F	4.f
4.G	4.g
=89	=89
4.A	4.e
4.r	4.r
=90	=90
4.B-	4.f
4.r	4e
.	8d
=91	=91
4.A	4.e
4.r	4d
.	8c
=92	=92
4.B-	4.B-
4.r	4c
.	8d
=93	=93
4.G	4.d
4.r	4.r
=94	=94
4.B-	4.f
4.c	4.e
=95	=95
4.d	4d
.	8e
4.c	4f
.	8e
=96	=96
4.d	4.d
4.r	4.r
=97	=97
4.e	4e
.	8d
4.f	4.c
=98	=98
4.e	4.e
4.d	4.f
=99	=99
4c	4g
8B	8f
4A	4e
8B	8f
=100	=100
4.d	4.d
4.r	4.r
=101	=101
4.e	4.A
4.d	4.B
=102	=102
4.c	4.c
4.r	4.r
=103	=103
4.B	4.d
4.r	4.r
=104	=104
2.A	8e
.	16f
.	16e
.	8d
.	4.c
=105	=105
4.G	8c
.	4d
4.r	4.r
=106	=106
2.c	4.f
.	4f
.	8e
=107	=107
16d	8d
16d	.
8c	8c
8d	8B
4.e	4.A
=108	=108
4.f	2.c
4f	.
8e	.
=109	=109
8d	16d
.	16d
8c	8c
8B	8d
4.A	4.e
=110	=110
4.c	4.f
4d	{24g
.	24f
.	24e
.	16d
.	16c
8e	16B
.	16A}
=111	=111
4.f	4.G
{24g	4.c
24f	.
24e	.
16d	.
16c	.
16B	.
16A}	.
=112	=112
4.G	8d
.	8c
.	8B
4.c	4.A
=113	=113
8c	8A
4d	4G
4.r	4.r
=114	=114
4.e	4A
.	8B
4.r	4c
.	8B
=115	=115
4.e	4.A
4.A	4.r
=116	=116
4.e	4e
.	8d
4.r	4c
.	8d
=117	=117
4e	4.e
8d	.
4c	4.r
8d	.
=118	=118
4.e	4.e
4.r	4.e
=119	=119
4.A	4.r
4.r	4.A
=120	=120
4.e	4.r
4.A	4.e
=121	=121
4.e	4.A
4.A	4.e
=122	=122
4c	4f
8B	8g
4.c	4.f
=123	=123
4.d	4.d
4.r	4.r
=124	=124
4.f	2.c
4f	.
8e	.
=125	=125
4.d	4d
.	8c
4.r	4.B
=126	=126
4.c	4.A
4.d	4.G
=127	=127
4.c	4.c
4.B	4.d
=128	=128
4.A	4.e
4.r	4.r
=129	=129
4.G	4.g
4.B-	4.f
=130	=130
2.d	4d
.	8e
.	4.f
=131	=131
4.c	16g
.	16f
.	8e
.	8d
4.r	4.c
=132	=132
4.e	4.B
4e	4B
8f	8A
=133	=133
16g	4.G
16f	.
16e	.
16d	.
16c	.
16B	.
4.A	4.c
=134	=134
4.G	4.d
4.r	4.r
=135	=135
4.c	4.g
4.d	4.f
=136	=136
4.e	4.e
4.f	4.d
=137	=137
4.e	4.c
4.d	4.d
=138	=138
2.r	4e
.	8f
.	4.g
=139	=139
4c	2.r
8A	.
4B	.
8A	.
=140	=140
4.G	4g
.	8f
4.r	8e
.	8d
.	8c
=141	=141
4.B	4.B
4.d	4.r
=142	=142
4.c	4.A
4.d	4.G
=143	=143
4.G	4.d
4.A	4.c
=144	=144
4.B	4.B
4B	4B
8c	8A
=145	=145
4.d	4.G
4.c	4.A
=146	=146
4.B	4.B
4.A	4.c
=147	=147
4.G	4.d
4.F	8e
.	8f
.	8e
=148	=148
4.G	4.d
4.r	4.r
=149	=149
4.A	4.c
4.r	4.r
=150	=150
4.G	4d
.	8d
4.r	4e
.	8d
=151	=151
4.c	4.c
4.B	4.d
=152	=152
4.A	4.e
4.r	4.r
=153	=153
4G	4.g
8A	.
4B	4.f
8A	.
=154	=154
4.G	4.d
4.r	4.e
=155	=155
4.c	4c
.	8B
4.r	4B
.	8A
=156	=156
4.d	4.G
4.r	4.r
=157	=157
4c	4.A
8B	.
4.c	4.r
=158	=158
4.d	4.G
4.r	4.r
=159	=159
4.f	4.F
4.e	4.r
=160	=160
4.d	4.G
4.r	4A
.	8B
=161	=161
4c	4.c
8d	.
4c	4.r
8B	.
=162	=162
4.A	4e
.	8d
4.r	4.c
=163	=163
4.B	4B
.	8A
4.d	4G
.	8B
=164	=164
4.G	4.d
4.r	4.r
=165	=165
4.A	4e
.	8d
4B	8c
.	8B
8c	8A
=166	=166
4.d	4.G
4.e	4A
.	8B
=167	=167
4f	4.c
8d	.
4.e	4.r
=168	=168
4.d	4.d
4.r	4.c
=169	=169
4e	4.A
8f	.
4g	4B
8f	8c
=170	=170
4.d	4.d
4.e	4.r
=171	=171
4.c	4.f
4.d	4.d
=172	=172
4.B	4.e
4.c	4.c
=173	=173
4.A	4.d
4.B	4.B
=174	=174
4.G	8d
.	8c
.	8B
4.r	4.A
=175	=175
2.d	4G
.	8A
.	4B
.	8c
=176	=176
4.G	4.d
4.r	4.e
=177	=177
4.d	4.d
4.e	4.r
=178	=178
4.d	4.d
4.r	4e
.	8f
=179	=179
4.c	4.g
4.r	4.g
=180	=180
4.B-	4.f
4.r	4.f
=181	=181
4.A	4e
.	8d
4.r	4d
.	8c
=182	=182
4.G	4.d
4.r	4d
.	8e
=183	=183
[2.F	{24f
.	24e
.	24d
.	16c
.	16B
.	16A
.	16G}
.	4.F
=184	=184
2.F]	4.c
.	4c
.	8B
=185	=185
4.G;	8A
.	4G;
4.r	4.r
==	==
*-	*-
!!!ENC: David Huron
!!!YEC: Copyright 1987, David Huron
!!!EEV: 1.0
